teams/dark/115.svg

<svg xmlns="http://www.w3.org/2000/svg" viewBox="0 0 300 300"><title>Colorado Rockies cap on dark logo</title><path fill="#c4ced4" d="M256.79 252.29v7.96h-1.63v-6.33h-.04l-2.32 6.33h-1.57l-2.24-6.33h-.03v6.33h-1.64v-7.96h2.83l1.86 5.2h.04l1.93-5.2Zm-17.38 0h6.44v1.42h-2.4v6.54h-1.63v-6.54h-2.41Zm-19.68-7.49c7.31 6.34 15.16 5.06 15.16 5.06v10.37s-39.09.03-41.55.03c-.95 0-35.74-58.57-35.74-58.57h-9.44v29.72c0 16.42 5.16 18.41 19.06 18.41v10.43h-67.5v-10.43c14.96 0 18.52-3.33 18.52-19.52v-43.77c-.42.01-.81.04-1.23.04-24.15 0-40.74-10.1-51.01-24.02-10.29-13.92-14.79-31.43-14.79-46.92 0-22.44 7.22-41.08 19.84-54.77 12.44-13.47 30.29-21.1 51.2-21.1 19.3 0 29.93 6.74 34.43 6.74 1.63 0 2.53-.9 3.25-3.15h6.68l1.61 46.92h-8.47c-1.98-11.45-6.48-20.88-12.8-27.39-6.31-6.51-14.24-10.1-23.26-10.1-23.97 0-40.38 24.47-40.38 59.26 0 32.86 13.85 56.24 34.94 60.68v-19.84c0-16.63-3.21-20.18-18.52-20.18v-10.43c10.86-.89 18.16-1.55 32.41-2.44 11.22-.66 22.26-1.11 28.32-1.11 28.5 0 57 9.94 57.12 40.59-.12 28.35-26.45 34.47-30.63 36.56 11.41 2.56 25.22 41.51 32.79 48.92ZM58.67 114.54c-.05 47.6 35.28 56.59 35.28 56.59s-18.18-22.75-18.13-59.27C75.89 72.54 95.3 53.8 95.3 53.8s-36.59 14.28-36.63 60.74m82.24 15.3-15.38 1.06v118.88h15.38Zm67.58 30.08c-.07-26.51-28.13-29.03-28.13-29.03s10.15 6.46 10.14 29.29c-.01 22.61-10.6 28.97-10.6 28.97s28.68-5.89 28.6-29.24Zm-60.32 30.89c25.83.44 35.09-9.54 35.09-32.39 0-17.52-9.09-29.05-26.37-29.05h-8.73v35.46c6.4-5.75 11.78-14.37 16.09-25.87h8.47c-1.44 12.8-5.77 29.42-10.99 44.68l-.55 1.57c-1.62-.67-3.43-1.12-5.23-1.34-1.62-.45-3.6-.45-5.77-.45-.66 0-1.34.04-2.02.06v7.33Zm46.02 59.03 21.93.05s-4.58-3.62-10.97-16.37c-5.93-14.13-17.03-31.41-24.8-35.3 0 0-2.17.85-5.14 1.69-3.27.94-9.95 1.99-9.95 1.99 9.11 12.64 28.92 47.94 28.92 47.94Z"/><path fill="#33006f" d="M95.3 53.8s-19.41 18.74-19.48 58.06c-.06 36.52 18.13 59.27 18.13 59.27s-35.32-8.99-35.28-56.59C58.7 68.09 95.3 53.8 95.3 53.8m30.23 77.1 15.38-1.06v119.94h-15.38Zm64.98 29.26c.01-22.83-10.14-29.29-10.14-29.29s28.05 2.52 28.13 29.03c.08 23.36-28.6 29.24-28.6 29.24s10.6-6.36 10.6-28.97Zm14.62 73.36c6.4 12.74 10.97 16.37 10.97 16.37l-21.93-.05s-19.81-35.3-28.92-47.94c0 0 6.69-1.05 9.95-1.99 2.97-.84 5.14-1.69 5.14-1.69 7.77 3.89 18.87 21.17 24.8 35.3Z"/></svg>

<svg width="300" height="300" viewBox="0 0 300 300" fill="none" xmlns="http://www.w3.org/2000/svg">
<path d="M219.73 244.8C227.04 251.14 234.89 249.86 234.89 249.86V260.23C234.89 260.23 195.8 260.26 193.34 260.26C192.39 260.26 157.6 201.69 157.6 201.69H148.16V231.41C148.16 247.83 153.32 249.82 167.22 249.82V260.25H99.72V249.82C114.68 249.82 118.24 246.49 118.24 230.3V186.53C117.82 186.54 117.43 186.57 117.01 186.57C92.86 186.57 76.27 176.47 66 162.55C55.71 148.63 51.21 131.12 51.21 115.63C51.21 93.19 58.43 74.55 71.05 60.86C83.49 47.39 101.34 39.76 122.25 39.76C141.55 39.76 152.18 46.5 156.68 46.5C158.31 46.5 159.21 45.6 159.93 43.35H166.61L168.22 90.27H159.75C157.77 78.82 153.27 69.39 146.95 62.88C140.64 56.37 132.71 52.78 123.69 52.78C99.72 52.78 83.31 77.25 83.31 112.04C83.31 144.9 97.16 168.28 118.25 172.72V152.88C118.25 136.25 115.04 132.7 99.73 132.7V122.27C110.59 121.38 117.89 120.72 132.14 119.83C143.36 119.17 154.4 118.72 160.46 118.72C188.96 118.72 217.46 128.66 217.58 159.31C217.46 187.66 191.13 193.78 186.95 195.87C198.36 198.43 212.17 237.38 219.74 244.79L219.73 244.8ZM58.67 114.54C58.62 162.14 93.95 171.13 93.95 171.13C93.95 171.13 75.77 148.38 75.82 111.86C75.89 72.54 95.3 53.8 95.3 53.8C95.3 53.8 58.71 68.08 58.67 114.54ZM140.91 129.84L125.53 130.9V249.78H140.91V129.84ZM208.49 159.92C208.42 133.41 180.36 130.89 180.36 130.89C180.36 130.89 190.51 137.35 190.5 160.18C190.49 182.79 179.9 189.15 179.9 189.15C179.9 189.15 208.58 183.26 208.5 159.91L208.49 159.92ZM148.17 190.81C174 191.25 183.26 181.27 183.26 158.42C183.26 140.9 174.17 129.37 156.89 129.37H148.16V164.83C154.56 159.08 159.94 150.46 164.25 138.96H172.72C171.28 151.76 166.95 168.38 161.73 183.64L161.18 185.21C159.56 184.54 157.75 184.09 155.95 183.87C154.33 183.42 152.35 183.42 150.18 183.42C149.52 183.42 148.84 183.46 148.16 183.48V190.81H148.17ZM194.19 249.84L216.12 249.89C216.12 249.89 211.54 246.27 205.15 233.52C199.22 219.39 188.12 202.11 180.35 198.22C180.35 198.22 178.18 199.07 175.21 199.91C171.94 200.85 165.26 201.9 165.26 201.9C174.37 214.54 194.18 249.84 194.18 249.84H194.19Z" fill="#C4CED4"/>
<path d="M95.3 53.8C95.3 53.8 75.89 72.54 75.82 111.86C75.76 148.38 93.95 171.13 93.95 171.13C93.95 171.13 58.63 162.14 58.67 114.54C58.7 68.09 95.3 53.8 95.3 53.8ZM125.53 130.9L140.91 129.84V249.78H125.53V130.9ZM190.51 160.16C190.52 137.33 180.37 130.87 180.37 130.87C180.37 130.87 208.42 133.39 208.5 159.9C208.58 183.26 179.9 189.14 179.9 189.14C179.9 189.14 190.5 182.78 190.5 160.17L190.51 160.16ZM205.13 233.52C211.53 246.26 216.1 249.89 216.1 249.89L194.17 249.84C194.17 249.84 174.36 214.54 165.25 201.9C165.25 201.9 171.94 200.85 175.2 199.91C178.17 199.07 180.34 198.22 180.34 198.22C188.11 202.11 199.21 219.39 205.14 233.52H205.13Z" fill="#33006F"/>
</svg>
